antibot/app/images/dist/why/why-icon5.svg

<svg width="36" height="33" viewBox="0 0 36 33" fill="none" xmlns="http://www.w3.org/2000/svg">
<path d="M2.16699 4.8335L4.66699 7.3335L9.66699 2.3335" stroke="#29B74D" stroke-width="3.33333" stroke-linecap="round" stroke-linejoin="round"/>
<path d="M2.16699 16.5L4.66699 19L9.66699 14" stroke="#29B74D" stroke-width="3.33333" stroke-linecap="round" stroke-linejoin="round"/>
<path d="M2.16699 28.167L4.66699 30.667L9.66699 25.667" stroke="#29B74D" stroke-width="3.33333" stroke-linecap="round" stroke-linejoin="round"/>
<path d="M15.5 16.5H33.8333" stroke="#29B74D" stroke-width="3.33333" stroke-linecap="round" stroke-linejoin="round"/>
<path d="M15.5 28.167H33.8333" stroke="#29B74D" stroke-width="3.33333" stroke-linecap="round" stroke-linejoin="round"/>
<path d="M15.5 4.8335H33.8333" stroke="#29B74D" stroke-width="3.33333" stroke-linecap="round" stroke-linejoin="round"/>
</svg>

<svg width="36" height="33" fill="none" xmlns="http://www.w3.org/2000/svg"><path d="m2.167 4.833 2.5 2.5 5-5M2.167 16.5l2.5 2.5 5-5m-7.5 14.167 2.5 2.5 5-5M15.5 16.5h18.333M15.5 28.167h18.333M15.5 4.833h18.333" stroke="#29B74D" stroke-width="3.333" stroke-linecap="round" stroke-linejoin="round"/></svg>
